madamjo/images/support.svg

<svg width="17" height="16" viewBox="0 0 17 16" fill="none" xmlns="http://www.w3.org/2000/svg">
<path d="M8.45857 10.9686V10.8561H7.75857V10.9686L6.59607 10.5188V11.918L7.75857 11.3808V11.5432H8.45857V11.3808L9.59607 11.9055V10.5188L8.45857 10.9686ZM11.6586 10.7312L8.09607 13.3547L4.53357 10.7312C4.53357 10.7312 0.0960693 11.4808 0.0960693 13.7794C0.0960693 16.7402 16.0961 16.7402 16.0961 13.7794C16.0961 11.4808 11.6586 10.7312 11.6586 10.7312ZM12.9961 4.45989C12.9336 4.44739 12.8711 4.54734 12.8086 4.69725C12.7086 3.36053 12.1086 2.18622 11.2086 1.34921C10.3961 0.5122 9.29607 0 8.08357 0C7.65857 0 7.25857 0.0624634 6.87107 0.174898C6.82107 0.18739 6.77107 0.199883 6.73357 0.224868C6.00857 0.474722 5.35857 0.911966 4.84607 1.49912C4.10857 2.23619 3.60857 3.22311 3.43357 4.32247C3.33357 4.22253 3.24607 4.17256 3.13357 4.18505C2.75857 4.21003 2.49607 4.97209 2.54607 5.90904C2.59607 6.8335 2.94607 7.57056 3.32107 7.55807C3.45857 7.54558 3.59607 7.44564 3.69607 7.25825C3.74607 7.30822 3.80857 7.3457 3.88357 7.39567C4.65857 9.01972 6.25857 10.1441 8.09607 10.1441C10.1336 10.1441 11.8836 8.76986 12.5336 6.8335C12.5586 7.02089 12.6086 7.13332 12.6711 7.14581C12.8211 7.15831 13.0211 6.58364 13.1086 5.84657C13.1961 5.08452 13.1461 4.47238 12.9961 4.45989ZM8.09607 9.63186C6.72107 9.63186 5.49607 8.91977 4.73357 7.82042C5.54607 8.17021 6.50857 8.48253 6.70857 8.48253C6.77107 8.76986 7.27107 8.95725 7.85857 8.91977C8.48357 8.8823 8.97107 8.61995 8.95857 8.32012C8.94607 8.0203 8.42107 7.80793 7.79607 7.83291C7.38357 7.8579 7.02107 7.98282 6.83357 8.15772C6.57107 8.17021 5.24607 7.67051 4.39607 7.24575C4.08357 6.60863 3.90857 5.89654 3.90857 5.13449C3.90857 4.7722 3.94607 4.42241 4.02107 4.08511C4.22107 4.16006 4.43357 4.19754 4.64607 4.19754C5.63357 4.19754 6.47107 3.38552 6.80857 2.23619C7.44607 3.38552 9.08357 4.19754 11.0086 4.19754C11.4211 4.19754 11.8086 4.16006 12.1836 4.0976C12.2586 4.4349 12.2961 4.7847 12.2961 5.13449C12.2961 7.60804 10.4086 9.63186 8.09607 9.63186Z" fill="#5F666E"/>
</svg>

<?xml version="1.0" encoding="utf-8"?>
<!-- Generator: Adobe Illustrator 16.0.0, SVG Export Plug-In . SVG Version: 6.00 Build 0)  -->
<!DOCTYPE svg PUBLIC "-//W3C//DTD SVG 1.1//EN" "http://www.w3.org/Graphics/SVG/1.1/DTD/svg11.dtd">
<svg version="1.1" id="Layer_1" xmlns="http://www.w3.org/2000/svg" xmlns:xlink="http://www.w3.org/1999/xlink" x="0px" y="0px"
	 width="17px" height="17px" viewBox="-0.406 -0.531 17 17" enable-background="new -0.406 -0.531 17 17" xml:space="preserve">
<path fill="#5F666E" d="M8.458,10.969v-0.113h-0.7v0.113l-1.163-0.45v1.399l1.163-0.537v0.162h0.7v-0.162l1.137,0.524v-1.387
	L8.458,10.969z M11.658,10.731l-3.562,2.623l-3.563-2.623c0,0-4.438,0.749-4.438,3.048c0,2.961,16,2.961,16,0
	C16.096,11.48,11.658,10.731,11.658,10.731z M12.996,4.46c-0.063-0.013-0.125,0.087-0.188,0.237c-0.1-1.337-0.7-2.511-1.6-3.348
	C10.396,0.512,9.296,0,8.083,0C7.659,0,7.259,0.063,6.871,0.175c-0.05,0.013-0.1,0.025-0.138,0.05
	c-0.725,0.25-1.375,0.688-1.887,1.274C4.108,2.236,3.608,3.223,3.434,4.322c-0.1-0.1-0.188-0.15-0.3-0.137
	C2.759,4.21,2.496,4.972,2.546,5.909c0.05,0.924,0.4,1.661,0.775,1.649c0.137-0.013,0.275-0.112,0.375-0.3
	c0.05,0.05,0.112,0.087,0.188,0.137c0.775,1.624,2.375,2.749,4.212,2.749c2.038,0,3.788-1.375,4.437-3.311
	c0.025,0.188,0.075,0.3,0.138,0.313c0.15,0.012,0.351-0.563,0.438-1.299C13.196,5.084,13.146,4.472,12.996,4.46z M8.096,9.632
	c-1.375,0-2.6-0.712-3.363-1.812c0.813,0.35,1.775,0.662,1.975,0.662C6.771,8.77,7.271,8.957,7.858,8.92
	c0.625-0.037,1.113-0.3,1.1-0.6c-0.012-0.3-0.538-0.512-1.163-0.487c-0.412,0.025-0.775,0.15-0.962,0.325
	C6.571,8.17,5.246,7.67,4.396,7.246C4.083,6.608,3.909,5.896,3.909,5.134c0-0.362,0.038-0.712,0.112-1.049
	c0.2,0.075,0.413,0.112,0.625,0.112c0.988,0,1.825-0.812,2.163-1.961c0.638,1.149,2.275,1.961,4.2,1.961
	c0.412,0,0.8-0.037,1.175-0.1c0.075,0.337,0.112,0.687,0.112,1.037C12.296,7.608,10.408,9.632,8.096,9.632z"/>
</svg>
